src/images/tg.svg

<?xml version="1.0" encoding="UTF-8"?>
<svg xmlns="http://www.w3.org/2000/svg" xmlns:xlink="http://www.w3.org/1999/xlink" width="50px" height="50px" viewBox="0 0 50 50" version="1.1">
<g id="surface1">
<path style=" stroke:none;fill-rule:nonzero;fill:rgb(0%,0%,0%);fill-opacity:1;" d="M 34.566406 15.6875 C 34.574219 15.6875 34.585938 15.6875 34.601562 15.6875 C 34.925781 15.6875 35.230469 15.789062 35.476562 15.964844 L 35.472656 15.960938 C 35.65625 16.117188 35.777344 16.339844 35.804688 16.589844 L 35.804688 16.59375 C 35.835938 16.785156 35.855469 17.003906 35.855469 17.226562 C 35.855469 17.328125 35.851562 17.429688 35.84375 17.53125 L 35.84375 17.515625 C 35.492188 21.21875 33.96875 30.195312 33.191406 34.335938 C 32.863281 36.09375 32.21875 36.679688 31.59375 36.734375 C 30.234375 36.863281 29.203125 35.839844 27.890625 34.976562 C 25.828125 33.625 24.664062 32.785156 22.667969 31.46875 C 20.355469 29.945312 21.855469 29.109375 23.171875 27.742188 C 23.515625 27.382812 29.5 21.9375 29.617188 21.445312 C 29.625 21.414062 29.628906 21.382812 29.628906 21.347656 C 29.628906 21.226562 29.582031 21.113281 29.507812 21.03125 C 29.429688 20.976562 29.328125 20.945312 29.21875 20.945312 C 29.148438 20.945312 29.082031 20.960938 29.019531 20.984375 L 29.023438 20.984375 C 28.816406 21.03125 25.527344 23.203125 19.15625 27.503906 C 18.460938 28.054688 17.582031 28.398438 16.625 28.441406 L 16.617188 28.441406 C 15.261719 28.277344 14.03125 27.976562 12.863281 27.546875 L 12.980469 27.582031 C 11.515625 27.105469 10.351562 26.851562 10.449219 26.042969 C 10.503906 25.621094 11.082031 25.191406 12.191406 24.75 C 19.011719 21.78125 23.558594 19.820312 25.835938 18.875 C 28.347656 17.542969 31.257812 16.445312 34.320312 15.734375 L 34.5625 15.6875 Z M 24.890625 1.601562 C 11.917969 1.632812 1.414062 12.15625 1.414062 25.132812 C 1.414062 38.128906 11.949219 48.664062 24.945312 48.664062 C 37.941406 48.664062 48.476562 38.128906 48.476562 25.132812 C 48.476562 12.15625 37.972656 1.632812 25.003906 1.601562 L 25 1.601562 C 24.964844 1.601562 24.925781 1.601562 24.890625 1.601562 Z M 24.890625 1.601562 "/>
</g>
</svg>

<svg xmlns="http://www.w3.org/2000/svg" width="50" height="50"><path d="M34.566 15.688h.036c.324 0 .628.101.875.277l-.004-.004a.96.96 0 0 1 .332.629v.004a3.994 3.994 0 0 1 .039.937v-.015c-.352 3.703-1.875 12.68-2.653 16.82-.328 1.758-.972 2.344-1.597 2.398-1.36.13-2.39-.894-3.703-1.757-2.063-1.352-3.227-2.192-5.223-3.508-2.313-1.524-.813-2.36.504-3.727.344-.36 6.328-5.805 6.445-6.297a.475.475 0 0 0-.11-.414.505.505 0 0 0-.288-.086.565.565 0 0 0-.2.04h.004c-.207.046-3.496 2.218-9.867 6.519a4.388 4.388 0 0 1-2.531.937h-.008a16.493 16.493 0 0 1-3.754-.894l.117.035c-1.464-.477-2.628-.73-2.53-1.539.054-.422.632-.852 1.741-1.293 6.82-2.969 11.368-4.93 13.645-5.875 2.512-1.332 5.422-2.43 8.484-3.14l.242-.047ZM24.891 1.601c-12.973.03-23.477 10.554-23.477 23.53 0 12.997 10.535 23.532 23.531 23.532 12.996 0 23.532-10.535 23.532-23.531 0-12.977-10.504-23.5-23.473-23.531h-.114Zm0 0" style="stroke:none;fill-rule:nonzero;fill:#000;fill-opacity:1"/></svg>
